X:0479
T:Gi'e me A Lass wi' a Lump o' Land
M:6/8
L:1/8
Q:3/8=76
I: :: :: % first repeat partly un-inked, could be :|
Z:Jack Campin * www.campin.me.uk * 2009
K:G
A>Bd Te2A|Tf2A  Te2A |A>Bd Te2A| gfe   d<BG |
A>Bd Te2A|Tf2A  Te2f |g>ag g>fe| d<Bg  d>BG::
g>ag Tf2e| f2g  Ta3  |g>ag gfe | d2g   d<BG |
g>ag  gfe|Tf2g (Taga)|b>ag g>fe|(d<ge) d>BG:|
<end>
<start>
